X:14
T:Jour du Seigneur
C:J. Akepsimas
L:1/8
M:C
K:C
"Do"E2 CC "Sol"D4|"Rem"FF DD "Do"E3 E|"Lam"AA Bc "Do"B2 EE|"Fa"c2 BA "Sol"G4|G6||
CD|"Do"E2 E2 "Rem"F2 "Sol"D2|"Do"E3 F G4|"Lam"E2 FG "Fa"A3 A|[M:2/4]"Rem"BA GF|[M:C]"Mim"G4 zG|
"Lam"cc "Rem"BA "Mim"GG "Lam"AG|("Rem"G3 F) "Mi"E3 "Do"G|"Lam"cc "Rem"BA "Mim"GG A"Lam"G|("Rem"G3 "Sol"F) "Do"E4|
